data/ubuntu-sans.svg

<svg width="79.044" height="16.8" viewBox="0 0 79.044 16.8" xmlns="http://www.w3.org/2000/svg"><path transform="translate(0 13.16) scale(.014 -.014)" d="m341-15q-93 0-149 36t-81.5 98-25.5 139v435h78v-426q0-111 49.5-161.5t128.5-50.5q80 0 129.5 51t49.5 161v426h78v-435q0-77-25.5-139t-81.5-98-150-36z"/><path transform="translate(9.562 13.16) scale(.014 -.014)" d="m275-12q-44 0-80 4.5t-63.5 11-47.5 12.5v747l75 13v-287q18 13 54.5 26.5t84.5 13.5q75 0 127-34.5t79.5-95.5 27.5-140q0-84-32-144.5t-90-93.5-135-33zm-1 67q54 0 94.5 24t62.5 69.5 22 110.5q0 42-8.5 79t-28 65-51 43.5-76.5 15.5q-43 0-78-14.5t-52-28.5v-351q14-4 42.5-8.5t72.5-4.5z"/><path transform="translate(17.752 13.16) scale(.014 -.014)" d="m286-10q-78 0-123.5 29.5t-65 83.5-19.5 125v290h75v-270q0-70 14-112t45.5-60.5 83.5-18.5q42 0 74.5 4.5t42.5 7.5v449h74v-500q-30-8-80.5-18t-120.5-10z"/><path transform="translate(25.746 13.16) scale(.014 -.014)" d="m84 0v500q31 8 81 18t120 10q81 0 126-30t63.5-83.5 18.5-124.5v-290h-75v269q0 71-13 113t-44 61-86 19q-42 0-74-5t-42-8v-449z"/><path transform="translate(33.74 13.16) scale(.014 -.014)" d="m253-11q-66 0-104 23t-53.5 69-15.5 115v472l75 13v-163h203v-63h-203v-265q0-55 12.5-84t36-39.5 55.5-10.5q38 0 63.5 9t40.5 16l16-61q-15-9-49.5-20t-76.5-11z"/><path transform="translate(39.242 13.16) scale(.014 -.014)" d="m286-10q-78 0-123.5 29.5t-65 83.5-19.5 125v290h75v-270q0-70 14-112t45.5-60.5 83.5-18.5q42 0 74.5 4.5t42.5 7.5v449h74v-500q-30-8-80.5-18t-120.5-10z"/><path transform="translate(50.442 13.16) scale(.014 -.014)" d="m242-15q-81 0-134.5 18t-73.5 30l25 66q21-12 67.5-29t115.5-17q79 0 122 28.5t43 90.5q0 48-23.5 75.5t-62 45-84.5 35.5q-56 22-97.5 46.5t-64 60-22.5 89.5q0 60 27 101t78 62 121 21q58 0 107.5-14.5t76.5-31.5l-26-65q-29 20-70.5 32t-88.5 12q-64 0-105-26t-41-85q0-40 20-65t55-42 79-35q57-22 102.5-46.5t72.5-63 27-103.5q0-63-30-105t-85-63.5-131-21.5z"/><path transform="translate(57.778 13.16) scale(.014 -.014)" d="m241-11q-56 0-100 16t-69 52-25 95q0 57 28 92.5t77.5 51.5 111.5 16q28 0 59-5t39-9v30q0 34-8.5 65.5t-34.5 51.5-79 20q-55 0-84-8t-43-13l-10 64q18 8 55 15t87 7q71 0 112.5-25t60-68.5 18.5-99.5v-325q-21-5-75-14t-120-9zm11 64q35 0 63 2.5t47 6.5v174q-10 5-34 10t-62 5q-32 0-65-7t-55.5-28-22.5-63q0-56 35-78t94-22z"/><path transform="translate(64.974 13.16) scale(.014 -.014)" d="m84 0v500q31 8 81 18t120 10q81 0 126-30t63.5-83.5 18.5-124.5v-290h-75v269q0 71-13 113t-44 61-86 19q-42 0-74-5t-42-8v-449z"/><path transform="translate(72.968 13.16) scale(.014 -.014)" d="m195-12q-67 0-104.5 11.5t-50.5 17.5l18 66q11-4 45-17t92-13q55 0 89 17t34 59q0 27-12 43.5t-38.5 30.5-72.5 32q-39 16-72 34t-53.5 46-20.5 72q0 43 22 75t62.5 50 96.5 18q52 0 88-9t51-16l-17-65q-13 7-42 16.5t-82 9.5q-42 0-73-17.5t-31-55.5q0-27 13-43.5t39-29.5 64-28q43-17 77.5-35.5t55.5-47.5 21-77q0-47-24-79.5t-68.5-48.5-106.5-16z"/></svg>

<?xml version="1.0" encoding="utf-8" ?>
<svg baseProfile="tiny" height="100%" version="1.2" width="100%" xmlns="http://www.w3.org/2000/svg" xmlns:ev="http://www.w3.org/2001/xml-events" xmlns:xlink="http://www.w3.org/1999/xlink"><defs /><g><path d="M341 -15Q248 -15 192.0 21.0Q136 57 110.5 119.0Q85 181 85 258V693H163V267Q163 156 212.5 105.5Q262 55 341 55Q421 55 470.5 106.0Q520 157 520 267V693H598V258Q598 181 572.5 119.0Q547 57 491.0 21.0Q435 -15 341 -15Z" transform="translate(0.0, 72) scale(0.072, -0.072)" /><path d="M275 -12Q231 -12 195.0 -7.5Q159 -3 131.5 3.5Q104 10 84 16V763L159 776V489Q177 502 213.5 515.5Q250 529 298 529Q373 529 425.0 494.5Q477 460 504.5 399.0Q532 338 532 259Q532 175 500.0 114.5Q468 54 410.0 21.0Q352 -12 275 -12ZM274 55Q328 55 368.5 79.0Q409 103 431.0 148.5Q453 194 453 259Q453 301 444.5 338.0Q436 375 416.5 403.0Q397 431 365.5 446.5Q334 462 289 462Q246 462 211.0 447.5Q176 433 159 419V68Q173 64 201.5 59.5Q230 55 274 55Z" transform="translate(49.175999999999995, 72) scale(0.072, -0.072)" /><path d="M286 -10Q208 -10 162.5 19.5Q117 49 97.5 103.0Q78 157 78 228V518H153V248Q153 178 167.0 136.0Q181 94 212.5 75.5Q244 57 296 57Q338 57 370.5 61.5Q403 66 413 69V518H487V18Q457 10 406.5 0.0Q356 -10 286 -10Z" transform="translate(91.29599999999999, 72) scale(0.072, -0.072)" /><path d="M84 0V500Q115 508 165.0 518.0Q215 528 285 528Q366 528 411.0 498.0Q456 468 474.5 414.5Q493 361 493 290V0H418V269Q418 340 405.0 382.0Q392 424 361.0 443.0Q330 462 275 462Q233 462 201.0 457.0Q169 452 159 449V0Z" transform="translate(132.408, 72) scale(0.072, -0.072)" /><path d="M253 -11Q187 -11 149.0 12.0Q111 35 95.5 81.0Q80 127 80 196V668L155 681V518H358V455H155V190Q155 135 167.5 106.0Q180 77 203.5 66.5Q227 56 259 56Q297 56 322.5 65.0Q348 74 363 81L379 20Q364 11 329.5 0.0Q295 -11 253 -11Z" transform="translate(173.51999999999998, 72) scale(0.072, -0.072)" /><path d="M286 -10Q208 -10 162.5 19.5Q117 49 97.5 103.0Q78 157 78 228V518H153V248Q153 178 167.0 136.0Q181 94 212.5 75.5Q244 57 296 57Q338 57 370.5 61.5Q403 66 413 69V518H487V18Q457 10 406.5 0.0Q356 -10 286 -10Z" transform="translate(201.81599999999997, 72) scale(0.072, -0.072)" /><path d="M242 -15Q161 -15 107.5 3.0Q54 21 34 33L59 99Q80 87 126.5 70.0Q173 53 242 53Q321 53 364.0 81.5Q407 110 407 172Q407 220 383.5 247.5Q360 275 321.5 292.5Q283 310 237 328Q181 350 139.5 374.5Q98 399 75.5 434.5Q53 470 53 524Q53 584 80.0 625.0Q107 666 158.0 687.0Q209 708 279 708Q337 708 386.5 693.5Q436 679 463 662L437 597Q408 617 366.5 629.0Q325 641 278 641Q214 641 173.0 615.0Q132 589 132 530Q132 490 152.0 465.0Q172 440 207.0 423.0Q242 406 286 388Q343 366 388.5 341.5Q434 317 461.0 278.5Q488 240 488 175Q488 112 458.0 70.0Q428 28 373.0 6.5Q318 -15 242 -15Z" transform="translate(259.41599999999994, 72) scale(0.072, -0.072)" /><path d="M241 -11Q185 -11 141.0 5.0Q97 21 72.0 57.0Q47 93 47 152Q47 209 75.0 244.5Q103 280 152.5 296.0Q202 312 264 312Q292 312 323.0 307.0Q354 302 362 298V328Q362 362 353.5 393.5Q345 425 319.0 445.0Q293 465 240 465Q185 465 156.0 457.0Q127 449 113 444L103 508Q121 516 158.0 523.0Q195 530 245 530Q316 530 357.5 505.0Q399 480 417.5 436.5Q436 393 436 337V12Q415 7 361.0 -2.0Q307 -11 241 -11ZM252 53Q287 53 315.0 55.5Q343 58 362 62V236Q352 241 328.0 246.0Q304 251 266 251Q234 251 201.0 244.0Q168 237 145.5 216.0Q123 195 123 153Q123 97 158.0 75.0Q193 53 252 53Z" transform="translate(297.14399999999995, 72) scale(0.072, -0.072)" /><path d="M84 0V500Q115 508 165.0 518.0Q215 528 285 528Q366 528 411.0 498.0Q456 468 474.5 414.5Q493 361 493 290V0H418V269Q418 340 405.0 382.0Q392 424 361.0 443.0Q330 462 275 462Q233 462 201.0 457.0Q169 452 159 449V0Z" transform="translate(334.15199999999993, 72) scale(0.072, -0.072)" /><path d="M195 -12Q128 -12 90.5 -0.5Q53 11 40 17L58 83Q69 79 103.0 66.0Q137 53 195 53Q250 53 284.0 70.0Q318 87 318 129Q318 156 306.0 172.5Q294 189 267.5 203.0Q241 217 195 235Q156 251 123.0 269.0Q90 287 69.5 315.0Q49 343 49 387Q49 430 71.0 462.0Q93 494 133.5 512.0Q174 530 230 530Q282 530 318.0 521.0Q354 512 369 505L352 440Q339 447 310.0 456.5Q281 466 228 466Q186 466 155.0 448.5Q124 431 124 393Q124 366 137.0 349.5Q150 333 176.0 320.0Q202 307 240 292Q283 275 317.5 256.5Q352 238 373.0 209.0Q394 180 394 132Q394 85 370.0 52.5Q346 20 301.5 4.0Q257 -12 195 -12Z" transform="translate(375.2639999999999, 72) scale(0.072, -0.072)" /></g></svg>
